X:3
T:Reel 3
M:4/4
K:Gmaj
L:1/8
dc|B>G (3GGG G>G (3GFG |A>G (3GGG f>G (3GFG |A>F (3FFF A>c (3cBA |G>F (3FEF GcBc|d>f (3fef g>G (3GFG |AFFG FABc|d>g (3gfg d>B (3GFG |AGFG FABcdc|B>G (3GFG D>G (3GFG |B>G (3GFG d>G (3GFG |A>F (3FFF c>F (3AFF |A>F (3FFF E>A (3cBA |d>g (3gfg d>G (3GFG |B>G (3GGG g>G (3gfg |a>c (3cBA fAFA| (3FED AF cF|
